X: 1
T: ADMIRAL'S -- HORNPIPE
B: Ryan's Mammoth Collection of Fiddle Tunes
R: hornpipe
M: C|
L: 1/8
Z: Contributed 20010916032545 by John Chambers jmchambers:rcn.net
K: G
u"1"d2 \
| "4"g"1"d"3"B"1"d "4"g"1"d"3"b"4"g | afdf afc'a \
| bgfg bgd'b | agfe defd |
| gdBd gdbg | afdf afc'a | bgd'b afc'a | b2g2g2 :|
|: (uBc) \
| dgfe dgfe | dcBc d2(Bc) | dfeg fag"2"b | "3"c'ad'b "1"a2("1"Bc) |
| dgfe dgfe | dcBc d2 ("2"bc') | d'bd'b c'a"2"gf | g2g2g2 :|
